X:74
T:Harpie Eagle
R:jig
C:Paul S. Cranford
O:Cape Breton Island
S:http://www.cranfordpub.com
D:currently unrecorded
B:currently unpublished in book form
Z:psc
H:                                                        copyrights Cranford Publications, SOCAN
L:1/8
Q:300
M:6/8
K:Gmaj
D|GAB cAd|cAc dcA|GAB cAd|cAc d2 A|
GAB cAd|cAc dcA|gfd cAd|cAF ~G2:|
K:Dmix
|:c|Add edd|fdf edc|Add ede|fdA ~G2 c|
[1Add edd|fdf efg|afd cAd|cAF ~G2:|
[2Add ede|fef efg|afd ede|dcA ~G2|]
